X:8
T: The banks of the bann, S. 46
N: I0507
O: Irland
S: O BOYLE, Sean: 25 Irish Folksongs, Dublin 1976]
R: Verführung]
M: 4/4
L: 1/8
K: D
DE | F2A4Bc | d2d4BA | F2F4E2 | D6
cd | e2e4dc | d2d4d2 | d2A4FE | F6
cd | e2e4dc | d2d4d2 | d2A4FE | FED4
DF | A2A4Bc | d2d4BA | F2F4E2 | D6

